X:12539
T:Oyster Girl,The. JC.261
M:4/4
L:1/8
Q:120
S:John Clare,Poet,Helpstone (1793-1864)
R:Air
O:England4
A:Northamptonshire
N:
Z:P Headford
K:Bb
"as writ"de BG|A2G2D2E2|F2G2G2B2|B2G2d2B2|A2d2e2B2|G2g2e2c2|e2e2d2B2|!
d2c2A2G2|G2:|:B2BBB2A2AAA2|G2A2B2A2|G2F2G2A2|B2A2G2F2|"DE"G2:|]
W:Song text exists. See Deacon.


